X:1
T:We Are Climbing Jacob's Ladder
M:4/4
L:1/2
K:C
 E/2 G3/2| E/2 G3/2| E/2 G3/2| G/2 E3/2| D/2 F3/2| D/2 F3/2| F/2 G3/2|\
 A/2 G3/2| c/2 c3/2| c/2 c3/2| c/2 c3/2| A/2 G3/2| G/2 E3/2| F/2 D3/2|\
 C2-| C z|
